icons/desktop/12/svg/soccer-ball-12.svg

<svg width="12" height="12" viewBox="0 0 12 12" fill="none" xmlns="http://www.w3.org/2000/svg">
<g clip-path="url(#clip0_8069_32469)">
<path d="M5.70605 4.71387C5.881 4.58698 6.11997 4.58699 6.29492 4.71387L7.28418 5.43262C7.46018 5.55962 7.53282 5.78619 7.46582 5.99219L7.08789 7.15527C7.02085 7.36104 6.82909 7.49987 6.6123 7.5H5.38867C5.1719 7.49986 4.98013 7.36103 4.91309 7.15527L4.53516 5.99219C4.46816 5.78619 4.5418 5.55962 4.7168 5.43262L5.70605 4.71387Z" fill="black"/>
<path fill-rule="evenodd" clip-rule="evenodd" d="M6 0C9.31371 0 12 2.68629 12 6C12 9.31371 9.31371 12 6 12C2.68629 12 0 9.31371 0 6C0 2.68629 2.68629 0 6 0ZM6.44238 2.60547C6.17938 2.79647 5.82257 2.79647 5.55957 2.60547L4.1875 1.6084C3.54374 1.87438 2.97158 2.27796 2.50684 2.78223L3.1416 4.43555C3.2586 4.73954 3.16706 5.08408 2.91406 5.28809L1.28906 6.60449C1.36742 7.22129 1.56399 7.8008 1.85547 8.32031L3.32129 8.24414C3.64502 8.22727 3.94347 8.42099 4.05957 8.72363L4.77637 10.5898C5.16685 10.6937 5.57683 10.75 6 10.75C6.4331 10.75 6.85228 10.6906 7.25098 10.582L7.7041 8.89551C7.78807 8.58161 8.06481 8.35698 8.38867 8.33984L10.1855 8.24512C10.4728 7.71077 10.6617 7.11569 10.7256 6.4834L9.19434 5.48926C8.92134 5.31226 8.79394 4.98001 8.87793 4.66602L9.40625 2.69238C8.95757 2.23041 8.41713 1.85822 7.8125 1.6084L6.44238 2.60547Z" fill="black"/>
</g>
<defs>
<clipPath id="clip0_8069_32469">
<rect width="12" height="12" fill="white"/>
</clipPath>
</defs>
</svg>

<!-- This Source Code Form is subject to the terms of the Mozilla Public
   - License, v. 2.0. If a copy of the MPL was not distributed with this
   - file, You can obtain one at http://mozilla.org/MPL/2.0/. -->
<svg xmlns="http://www.w3.org/2000/svg" width="12" height="12" fill="context-fill" fill-opacity="context-fill-opacity" viewBox="0 0 12 12">
    <g clip-path="url(#clip0_8069_32469)">
        <path d="M5.706 4.714a.5.5 0 0 1 .589 0l.99.719a.5.5 0 0 1 .18.56l-.377 1.162a.5.5 0 0 1-.476.345H5.39a.5.5 0 0 1-.476-.345l-.378-1.163a.5.5 0 0 1 .182-.56z" />
        <path fill-rule="evenodd" d="M6 0a6 6 0 1 1 0 12A6 6 0 0 1 6 0m.442 2.605a.75.75 0 0 1-.882 0l-1.372-.997a4.8 4.8 0 0 0-1.681 1.174l.635 1.654a.75.75 0 0 1-.228.852L1.29 6.604c.078.617.275 1.197.566 1.716l1.466-.076a.75.75 0 0 1 .739.48l.716 1.866a4.75 4.75 0 0 0 2.475-.008l.453-1.686a.75.75 0 0 1 .685-.556l1.797-.095c.287-.534.476-1.13.54-1.762L9.194 5.49a.75.75 0 0 1-.316-.823l.528-1.974a4.8 4.8 0 0 0-1.594-1.084z" clip-rule="evenodd" />
    </g>
</svg>
